src/svg/social-instagram-circular.svg

<svg version="1.2" baseProfile="tiny" xmlns="http://www.w3.org/2000/svg" width="24" height="24" viewBox="0 0 24 24"><path d="M12 3c-5 0-9 4-9 9s4 9 9 9 9-4 9-9-4-9-9-9zm0 7c1.1 0 2 .9 2 2s-.9 2-2 2-2-.9-2-2 .9-2 2-2zm2.8-2c0-.7.6-1.2 1.2-1.2s1.2.6 1.2 1.2-.5 1.2-1.2 1.2-1.2-.5-1.2-1.2zm-2.8 11c-3.9 0-7-3.1-7-7h3c0 2.2 1.8 4 4 4s4-1.8 4-4h3c0 3.9-3.1 7-7 7z"/></svg>

<?xml version="1.0" encoding="iso-8859-1"?>
<!-- Generator: Adobe Illustrator 16.2.1, SVG Export Plug-In . SVG Version: 6.00 Build 0)  -->
<svg version="1.2" baseProfile="tiny" id="Layer_1" xmlns="http://www.w3.org/2000/svg" xmlns:xlink="http://www.w3.org/1999/xlink"
   x="0px" y="0px" width="24px" height="24px" viewBox="0 0 24 24" xml:space="preserve">
<path d="M12,3c-5,0-9,4-9,9c0,5,4,9,9,9c5,0,9-4,9-9C21,7,17,3,12,3z M12,10c1.1,0,2,0.9,2,2c0,1.1-0.9,2-2,2c-1.1,0-2-0.9-2-2
	C10,10.9,10.9,10,12,10z M14.8,8c0-0.7,0.6-1.2,1.2-1.2s1.2,0.6,1.2,1.2S16.7,9.2,16,9.2S14.8,8.7,14.8,8z M12,19c-3.9,0-7-3.1-7-7
	h3c0,2.2,1.8,4,4,4c2.2,0,4-1.8,4-4h3C19,15.9,15.9,19,12,19z"/>
</svg>
